X: 406
T: Povrateno
O: Greece
F: http://www.youtube.com/watch?v=GdBjqPrp2no
M: 4/4
L: 1/8
Q: 1/4=84
K: C
|:.G.G/.G/ .G.G .D.D G2|.G.G/.G/ .G.G .D.D G2 :|
|:GG/G/ Gd d/c/d/c/ B_A|G{_A}G FG AGG2        :|
|:GG/G/ Gd d/c/d/c/ B_A|G{_A}G FG AGG2        :|
|:B{_A}B _AG GA Bc     |B{_A}B  _AG FGGz      :|



